images/twitter.svg

<svg width="20" height="17" viewBox="0 0 20 17" fill="none" xmlns="http://www.w3.org/2000/svg">
<path d="M20 2.17221C19.2642 2.49888 18.4733 2.71888 17.6433 2.81805C18.4908 2.31055 19.1417 1.50638 19.4475 0.548047C18.655 1.01805 17.7767 1.35971 16.8417 1.54388C16.0942 0.74638 15.0267 0.248047 13.8467 0.248047C11.1975 0.248047 9.25083 2.71971 9.84917 5.28555C6.44 5.11471 3.41667 3.48138 1.3925 0.99888C0.3175 2.84305 0.835 5.25555 2.66167 6.47721C1.99 6.45555 1.35667 6.27138 0.804167 5.96388C0.759167 7.86471 2.12167 9.64305 4.095 10.0389C3.5175 10.1955 2.885 10.2322 2.24167 10.1089C2.76333 11.7389 4.27833 12.9247 6.075 12.958C4.35 14.3105 2.17667 14.9147 0 14.658C1.81583 15.8222 3.97333 16.5014 6.29 16.5014C13.9083 16.5014 18.2125 10.0672 17.9525 4.29638C18.7542 3.71721 19.45 2.99471 20 2.17221Z" fill="white"/>
</svg>

<svg width="20" height="17" fill="none" xmlns="http://www.w3.org/2000/svg"><path d="M20 2.172a8.192 8.192 0 0 1-2.357.646 4.11 4.11 0 0 0 1.805-2.27 8.22 8.22 0 0 1-2.606.996A4.096 4.096 0 0 0 13.847.248c-2.65 0-4.596 2.472-3.998 5.038A11.649 11.649 0 0 1 1.392.999a4.109 4.109 0 0 0 1.27 5.478 4.086 4.086 0 0 1-1.858-.513c-.045 1.9 1.318 3.679 3.291 4.075a4.114 4.114 0 0 1-1.853.07 4.106 4.106 0 0 0 3.833 2.849A8.25 8.25 0 0 1 0 14.658a11.616 11.616 0 0 0 6.29 1.843c7.618 0 11.922-6.434 11.663-12.205A8.353 8.353 0 0 0 20 2.172Z" fill="#fff"/></svg>
